X:253
T:Stirling Castle TS.253
M:C|
L:1/8
Q:1/4=120
S:Thomas Sands’ MS,1810,Lincolnshire
R:Strathspey
O:England;Lincolnshire
Z:vmp.Ruairidh Greig, 2011
K:F
f|cFAF cF d/c/B/A/|cFAF EGGf|cFAF cF fc|d/c/B/A/ cF CFF:|
|:c|f2a/g/f/e/ fcAc|FB d/c/B/A/ cAAc|f2a/g/f/e/ fcAc|dfeg cffc|
fcaf ecbg|afcf eggb|afcf dBAB|AFcC CFF:|

